icon-themes/breeze_svg/res/ots_16_8.svg

<svg viewBox="0 0 16 16" xmlns="http://www.w3.org/2000/svg"><path d="m2 2v1 10 1h1 11v-1-11h-11zm1 1h10v2h-10zm0 3h2v3h-2zm3 0h4v3h-4zm5 0h2v3h-2zm-8 4h2v3h-2zm3 0h4v3h-4zm5 0h2v3h-2z" fill="#b3b3b3"/></svg>

<svg xmlns="http://www.w3.org/2000/svg" viewBox="0 0 16 16">
 <path 
     style="fill:#b3b3b3" 
     d="M 2 2 L 2 3 L 2 13 L 2 14 L 3 14 L 14 14 L 14 13 L 14 2 L 3 2 L 2 2 z M 3 3 L 13 3 L 13 5 L 3 5 L 3 3 z M 3 6 L 5 6 L 5 9 L 3 9 L 3 6 z M 6 6 L 10 6 L 10 9 L 6 9 L 6 6 z M 11 6 L 13 6 L 13 9 L 11 9 L 11 6 z M 3 10 L 5 10 L 5 13 L 3 13 L 3 10 z M 6 10 L 10 10 L 10 13 L 6 13 L 6 10 z M 11 10 L 13 10 L 13 13 L 11 13 L 11 10 z "
     />
 </svg>
